X:1
L:1/8
Q:1/2=90
M:2/2
K:C
 C |[K:C] uedS !>!Mabeed"^2nd"S!p! Magec | B/c/d Gd BG dB | A/B/c Fc AF cA | B/c/d Gd BG dB | 
 ^F/G/A DF G2 G :: A | B2 Bf B/B/B dB | cdcB ABcA | Ggga bag^f | g/a/b a^f g3 a | g/a/b =fd Bdfd | 
 cdcB ABcA | Bdg^f gBce | dBcA G2 G :| </s><end_of_turn>
<start_of_turn>model
Sure, here is the extracted motif in ABC format:

C |[K:C] uedS !>!Mabeed"^2nd"S!p! Magec | B/c/d Gd BG dB | A/B/c Fc AF cA |<eos>

id:11
<bos><start_of_turn>user
You will see an instruction related to extracting the motif of a piece of ABC music. Your responses should only include the extracted motif in ABC format.

data is:
Human: Analyze the musical work and pinpoint the consistent melodic element in every section.
